img/quote-right.svg

<svg width="70" height="49" viewBox="0 0 70 49" fill="#F2F2F2" xmlns="http://www.w3.org/2000/svg">
<path opacity="0.4" d="M5 48.2886H20L30 29.2528V0.699219H0V29.2528H15L5 48.2886ZM45 48.2886H60L70 29.2528V0.699219H40V29.2528H55L45 48.2886Z" fill="#F2F2F2"/>
</svg>

<svg width="70" height="49" fill="#F2F2F2" xmlns="http://www.w3.org/2000/svg"><path opacity=".4" d="M5 48.289h15l10-19.036V.699H0v28.554h15L5 48.289zm40 0h15l10-19.036V.699H40v28.554h15L45 48.289z"/></svg>
